X: 021975
T: Buckskin Breeches
S: "Roche Collection of Traditional Irish Music" [III/36/117]
L: 1/8
M: 9/8
R: slip jig
K: G
G2B AGF AGF | G2B AGF GED |
G2B AGF AGF | EGE c2A GED :|
fed ded d2d | fed dfa gfe |
fed ded cBA | EGE c2A GED |
fed ded d2d | fed dfa gfe |
dDD ADD GED | EGE c2A GED ||
